components/usbConector-ChenyangCYUSB3.0Type-BMaleToType-BFemaleBackPanelMountExtension/FrontView.svg

<?xml version="1.0" encoding="UTF-8" standalone="no"?>
<!-- Created with Inkscape (http://www.inkscape.org/) -->

<svg
   width="36.999809mm"
   height="15.600082mm"
   viewBox="0 0 36.999809 15.600082"
   version="1.1"
   id="svg1"
   xml:space="preserve"
   inkscape:version="1.3 (0e150ed, 2023-07-21)"
   sodipodi:docname="FrontView.svg"
   xmlns:inkscape="http://www.inkscape.org/namespaces/inkscape"
   xmlns:sodipodi="http://sodipodi.sourceforge.net/DTD/sodipodi-0.dtd"
   xmlns:xlink="http://www.w3.org/1999/xlink"
   xmlns="http://www.w3.org/2000/svg"
   xmlns:svg="http://www.w3.org/2000/svg"><sodipodi:namedview
     id="namedview1"
     pagecolor="#ffffff"
     bordercolor="#666666"
     borderopacity="1.0"
     inkscape:showpageshadow="2"
     inkscape:pageopacity="0.0"
     inkscape:pagecheckerboard="0"
     inkscape:deskcolor="#d1d1d1"
     inkscape:document-units="mm"
     inkscape:zoom="16.132516"
     inkscape:cx="69.920899"
     inkscape:cy="29.505628"
     inkscape:current-layer="layer1"
     showguides="false"
     showgrid="false" /><defs
     id="defs1"><linearGradient
       id="linearGradient9"><stop
         style="stop-color:#000000;stop-opacity:1"
         offset="0"
         id="stop8" /><stop
         style="stop-color:#333333;stop-opacity:1"
         offset="1"
         id="stop9" /></linearGradient><linearGradient
       id="linearGradient6"><stop
         style="stop-color:#000000;stop-opacity:1;"
         offset="0"
         id="stop6" /><stop
         style="stop-color:#000000;stop-opacity:0;"
         offset="1"
         id="stop7" /></linearGradient><linearGradient
       id="linearGradient1"><stop
         style="stop-color:#808080;stop-opacity:1"
         offset="0"
         id="stop1" /><stop
         style="stop-color:#000000;stop-opacity:1"
         offset="1"
         id="stop2" /></linearGradient><linearGradient
       id="linearGradient23"><stop
         style="stop-color:#2121ff;stop-opacity:1;"
         offset="0"
         id="stop24" /><stop
         style="stop-color:#7b7b7b;stop-opacity:0;"
         offset="1"
         id="stop25" /></linearGradient><linearGradient
       id="linearGradient21"><stop
         style="stop-color:#000000;stop-opacity:1;"
         offset="0"
         id="stop22" /><stop
         style="stop-color:#666666;stop-opacity:1"
         offset="1"
         id="stop23" /></linearGradient><linearGradient
       id="linearGradient20"><stop
         style="stop-color:#0a0aff;stop-opacity:1;"
         offset="0"
         id="stop20" /><stop
         style="stop-color:#1b1bff;stop-opacity:0;"
         offset="1"
         id="stop21" /></linearGradient><linearGradient
       id="linearGradient14"><stop
         style="stop-color:#0000ff;stop-opacity:1;"
         offset="0"
         id="stop15" /><stop
         style="stop-color:#000080;stop-opacity:1"
         offset="1"
         id="stop16" /></linearGradient><linearGradient
       id="linearGradient13"><stop
         style="stop-color:#626262;stop-opacity:1;"
         offset="0"
         id="stop13" /><stop
         style="stop-color:#b0b0b0;stop-opacity:1;"
         offset="1"
         id="stop14" /></linearGradient><radialGradient
       xlink:href="#linearGradient13"
       id="radialGradient14"
       cx="11.096733"
       cy="-3.6055202"
       fx="11.096733"
       fy="-3.6055202"
       r="7.7108479"
       gradientTransform="matrix(1.704579,1.7367447,-0.67766171,0.76890482,-6.2728274,-13.570002)"
       gradientUnits="userSpaceOnUse" /><radialGradient
       xlink:href="#linearGradient14"
       id="radialGradient16"
       cx="13.17968"
       cy="0.24895367"
       fx="13.17968"
       fy="0.24895367"
       r="2.7509418"
       gradientTransform="matrix(1.9787327,1.1660178,-1.5065519,2.5565996,-12.510885,-14.557436)"
       gradientUnits="userSpaceOnUse" /><radialGradient
       xlink:href="#linearGradient20"
       id="radialGradient21"
       cx="13.285048"
       cy="5.6932902"
       fx="13.285048"
       fy="5.6932902"
       r="2.6455748"
       gradientTransform="matrix(1.9608957,0.49362173,-0.34479578,1.3697842,-10.734431,-5.7684434)"
       gradientUnits="userSpaceOnUse" /><radialGradient
       xlink:href="#linearGradient21"
       id="radialGradient23"
       cx="6.7398291"
       cy="4.599719"
       fx="6.7398291"
       fy="4.599719"
       r="18.499905"
       gradientTransform="matrix(1.9995761,0,-7.1167167e-5,0.42162601,2.5685907,2.6603576)"
       gradientUnits="userSpaceOnUse" /><radialGradient
       xlink:href="#linearGradient23"
       id="radialGradient25"
       cx="18.808861"
       cy="5.8781323"
       fx="18.808861"
       fy="5.8781323"
       r="2.8782387"
       gradientTransform="matrix(-1.9995015,-1.1544127,0.29651473,-0.51361277,54.674253,29.439132)"
       gradientUnits="userSpaceOnUse" /><radialGradient
       xlink:href="#linearGradient1"
       id="radialGradient2"
       cx="12.245529"
       cy="-3.8066394"
       fx="12.245529"
       fy="-3.8066394"
       r="8.1500006"
       gradientTransform="matrix(1.0536711,1.1386944,-1.0339866,0.95679421,-0.40745271,-6.2899155)"
       gradientUnits="userSpaceOnUse" /><radialGradient
       xlink:href="#linearGradient9"
       id="radialGradient7"
       cx="9.4674215"
       cy="-8.8923645"
       fx="9.4674215"
       fy="-8.8923645"
       r="6.1069999"
       gradientTransform="matrix(-1.0398542,0,1.1967815e-5,-1.2823658,26.018786,-8.3542953)"
       gradientUnits="userSpaceOnUse" /></defs><g
     inkscape:groupmode="layer"
     id="layer3"
     inkscape:label="Drills"
     style="display:none"><rect
       style="opacity:1;fill:#ff0000;stroke:#000000;stroke-width:0"
       id="rect3"
       width="12.213936"
       height="12.620498"
       x="12.392937"
       y="1.4897916"
       inkscape:label="USB B Conector  Central Drill" /><circle
       style="opacity:1;fill:#ff0000;stroke-width:0.02;stroke-linecap:round;stroke-miterlimit:10;stop-color:#000000"
       id="circle1"
       cx="4.0000286"
       cy="7.8002162"
       r="1.6"
       inkscape:label="USB B Conector Bold 2 Drill" /><circle
       style="display:inline;opacity:1;fill:#ff0000;stroke-width:0.02;stroke-linecap:round;stroke-miterlimit:10;stop-color:#000000"
       id="path14136"
       cx="32.999779"
       cy="7.8002162"
       r="1.6"
       inkscape:label="USB B Conector Bold 1 Drill" /></g><g
     inkscape:label="USB B Conector Mount Panel"
     inkscape:groupmode="layer"
     id="layer1"
     style="display:inline;opacity:1"
     transform="translate(2.5693532,3.2003225)"><path
       id="rect1"
       style="display:inline;opacity:0.281;fill:url(#radialGradient23);fill-opacity:1;stroke:#000000;stroke-width:0"
       inkscape:label="shadow"
       d="m 7.1272131,-3.200322 c -0.9971949,0 -1.7998902,0.803212 -1.7998902,1.8004069 V -5.4817708e-7 H 1.4304032 C -0.78558582,-5.4817708e-7 -2.5693527,1.7837663 -2.5693527,3.9997553 v 1.1999268 c 0,2.215989 1.78376688,4.0002726 3.9997559,4.0002726 h 3.8969197 v 1.3999143 c 0,0.997195 0.8026953,1.79989 1.7998902,1.79989 H 24.758178 c 0.997195,0 1.79989,-0.802695 1.79989,-1.79989 V 9.1999547 H 30.4307 c 2.215989,0 3.999756,-1.7842836 3.999756,-4.0002726 V 3.9997553 C 34.430456,1.7837663 32.646689,-5.481771e-7 30.4307,-5.4817708e-7 H 26.558068 V -1.3999151 c 0,-0.9971949 -0.802695,-1.8004069 -1.79989,-1.8004069 z M 1.4309199,2.9998163 A 1.6,1.6 0 0 1 3.0308223,4.5997187 1.6,1.6 0 0 1 1.4309199,6.2001378 1.6,1.6 0 0 1 -0.16949918,4.5997187 1.6,1.6 0 0 1 1.4309199,2.9998163 Z m 28.9992631,0 a 1.6,1.6 0 0 1 1.60042,1.5999024 1.6,1.6 0 0 1 -1.60042,1.6004191 1.6,1.6 0 0 1 -1.599902,-1.6004191 1.6,1.6 0 0 1 1.599902,-1.5999024 z" /><rect
       style="display:inline;opacity:1;fill:url(#radialGradient2);fill-opacity:1;stroke:none;stroke-width:0"
       id="rect2"
       width="16.300001"
       height="15.599999"
       x="7.780551"
       y="-3.2002811" /><rect
       style="opacity:1;fill:url(#radialGradient7);fill-opacity:1;stroke-width:0"
       id="rect6"
       width="12.214"
       height="12.62"
       x="9.8235512"
       y="-1.7102814" /><path
       id="rect11"
       style="fill:url(#radialGradient14);fill-opacity:1;stroke:none;stroke-width:0"
       d="M 9.8235514,-1.7102815 V 10.909719 H 22.037552 V -1.7102815 Z m 0.7150036,0.3194825 h 10.783992 v 7.6134537 l -1.781575,0.9294038 0.04011,3.4381775 h -7.301058 l 0.0397,-3.4381775 -1.781167,-0.9294038 z" /><rect
       style="display:inline;fill:#2c2cff;fill-opacity:1;stroke:#000000;stroke-width:0"
       id="rect4"
       width="5.7564764"
       height="3.4139302"
       x="13.065819"
       y="1.2929294"
       rx="0.2"
       ry="0.2" /><rect
       style="display:inline;fill:#2c2cff;fill-opacity:1;stroke:none;stroke-width:0"
       id="rect5"
       width="5.3981867"
       height="1.4841236"
       x="13.244964"
       y="8.5103474"
       rx="0.2"
       ry="0.2" /><rect
       style="display:inline;fill:url(#radialGradient16);fill-opacity:1;stroke:#000000;stroke-width:0"
       id="rect9"
       width="5.5018826"
       height="3.1062295"
       x="13.193115"
       y="1.4467797"
       rx="0.19115452"
       ry="0.18197383" /><rect
       style="display:inline;fill:url(#radialGradient21);fill-opacity:1;stroke:#000000;stroke-width:0"
       id="rect10"
       width="5.181838"
       height="1.3289706"
       x="13.353138"
       y="8.587923"
       rx="0.1919844"
       ry="0.17909162" /></g></svg>

<?xml version="1.0" encoding="UTF-8" standalone="no"?>
<!-- Created with Inkscape (http://www.inkscape.org/) -->

<svg
   width="36.999809mm"
   height="15.600082mm"
   viewBox="0 0 36.999809 15.600082"
   version="1.1"
   id="svg1"
   xml:space="preserve"
   inkscape:version="1.3 (0e150ed, 2023-07-21)"
   sodipodi:docname="FrontView.svg"
   xmlns:inkscape="http://www.inkscape.org/namespaces/inkscape"
   xmlns:sodipodi="http://sodipodi.sourceforge.net/DTD/sodipodi-0.dtd"
   xmlns:xlink="http://www.w3.org/1999/xlink"
   xmlns="http://www.w3.org/2000/svg"
   xmlns:svg="http://www.w3.org/2000/svg"><sodipodi:namedview
     id="namedview1"
     pagecolor="#ffffff"
     bordercolor="#666666"
     borderopacity="1.0"
     inkscape:showpageshadow="2"
     inkscape:pageopacity="0.0"
     inkscape:pagecheckerboard="0"
     inkscape:deskcolor="#d1d1d1"
     inkscape:document-units="mm"
     inkscape:zoom="16.132516"
     inkscape:cx="69.920899"
     inkscape:cy="29.505628"
     inkscape:current-layer="layer1"
     showguides="false" /><defs
     id="defs1"><linearGradient
       id="linearGradient23"
       inkscape:collect="never"><stop
         style="stop-color:#2121ff;stop-opacity:1;"
         offset="0"
         id="stop24" /><stop
         style="stop-color:#7b7b7b;stop-opacity:0;"
         offset="1"
         id="stop25" /></linearGradient><linearGradient
       id="linearGradient21"
       inkscape:collect="never"><stop
         style="stop-color:#000000;stop-opacity:1;"
         offset="0"
         id="stop22" /><stop
         style="stop-color:#666666;stop-opacity:1"
         offset="1"
         id="stop23" /></linearGradient><linearGradient
       id="linearGradient20"
       inkscape:collect="never"><stop
         style="stop-color:#0a0aff;stop-opacity:1;"
         offset="0"
         id="stop20" /><stop
         style="stop-color:#1b1bff;stop-opacity:0;"
         offset="1"
         id="stop21" /></linearGradient><linearGradient
       id="linearGradient14"
       inkscape:collect="never"><stop
         style="stop-color:#0000ff;stop-opacity:1;"
         offset="0"
         id="stop15" /><stop
         style="stop-color:#000080;stop-opacity:1"
         offset="1"
         id="stop16" /></linearGradient><linearGradient
       id="linearGradient13"
       inkscape:collect="never"><stop
         style="stop-color:#626262;stop-opacity:1;"
         offset="0"
         id="stop13" /><stop
         style="stop-color:#b0b0b0;stop-opacity:1;"
         offset="1"
         id="stop14" /></linearGradient><radialGradient
       inkscape:collect="never"
       xlink:href="#linearGradient13"
       id="radialGradient14"
       cx="8.2061539"
       cy="-3.111129"
       fx="8.2061539"
       fy="-3.111129"
       r="7.7108479"
       gradientTransform="matrix(2.1522576,2.0394732,-0.85563798,0.90293108,-12.104165,-16.737129)"
       gradientUnits="userSpaceOnUse" /><radialGradient
       inkscape:collect="never"
       xlink:href="#linearGradient14"
       id="radialGradient16"
       cx="13.17968"
       cy="0.24895367"
       fx="13.17968"
       fy="0.24895367"
       r="2.7509418"
       gradientTransform="matrix(1.9787327,1.1660178,-1.5065519,2.5565996,-12.510885,-14.557436)"
       gradientUnits="userSpaceOnUse" /><radialGradient
       inkscape:collect="never"
       xlink:href="#linearGradient20"
       id="radialGradient21"
       cx="13.285048"
       cy="5.6932902"
       fx="13.285048"
       fy="5.6932902"
       r="2.6455748"
       gradientTransform="matrix(1.9608957,0.49362173,-0.34479578,1.3697842,-10.734431,-6.6819894)"
       gradientUnits="userSpaceOnUse" /><radialGradient
       inkscape:collect="never"
       xlink:href="#linearGradient21"
       id="radialGradient23"
       cx="-2.5693526"
       cy="4.599719"
       fx="-2.5693526"
       fy="4.599719"
       r="18.499905"
       gradientTransform="matrix(1.9995761,0,-7.1167167e-5,0.42162601,2.5685907,2.6603576)"
       gradientUnits="userSpaceOnUse" /><radialGradient
       inkscape:collect="never"
       xlink:href="#linearGradient23"
       id="radialGradient25"
       cx="18.808861"
       cy="5.8781323"
       fx="18.808861"
       fy="5.8781323"
       r="2.8782387"
       gradientTransform="matrix(-1.9995015,-1.1544127,0.29651473,-0.51361277,54.674253,29.439132)"
       gradientUnits="userSpaceOnUse" /></defs><g
     inkscape:groupmode="layer"
     id="layer3"
     inkscape:label="Drills"
     style="display:none"><rect
       style="opacity:1;fill:#ff0000;stroke:#000000;stroke-width:0"
       id="rect3"
       width="12.213936"
       height="12.620498"
       x="9.8236542"
       y="-2.085511"
       rx="1"
       ry="1"
       inkscape:label="Drill"
       transform="translate(2.5693527,3.2003219)" /><circle
       style="opacity:1;fill:#ff0000;stroke-width:0.02;stroke-linecap:round;stroke-miterlimit:10;stop-color:#000000"
       id="circle1"
       cx="30.285295"
       cy="4.5998945"
       r="1.6"
       inkscape:label="Drill Bold 2"
       transform="translate(2.5693527,3.2003219)" /><circle
       style="display:inline;opacity:1;fill:#ff0000;stroke-width:0.02;stroke-linecap:round;stroke-miterlimit:10;stop-color:#000000"
       id="path14136"
       cx="1.5998946"
       cy="4.5998945"
       r="1.6"
       inkscape:label="Drill Bold 1"
       transform="translate(2.5693527,3.2003219)" /></g><g
     inkscape:label="USB B Conector Mount Panel"
     inkscape:groupmode="layer"
     id="layer1"
     style="opacity:1"
     transform="translate(2.5693527,3.200322)"><path
       id="rect1"
       style="display:inline;opacity:0.33269566;fill:url(#radialGradient23);stroke:#000000;stroke-width:0;fill-opacity:1"
       inkscape:label="shadow"
       d="M 7.1272131 -3.200322 C 6.1300162 -3.200322 5.3273229 -2.397112 5.3273229 -1.3999151 L 5.3273229 -5.4817708e-07 L 1.4304032 -5.4817708e-07 C -0.78559018 -5.4817708e-07 -2.5693527 1.7837619 -2.5693527 3.9997553 L -2.5693527 5.1996821 C -2.5693527 7.4156755 -0.78559018 9.1999547 1.4304032 9.1999547 L 5.3273229 9.1999547 L 5.3273229 10.599869 C 5.3273229 11.597066 6.1300162 12.399759 7.1272131 12.399759 L 24.758178 12.399759 C 25.755375 12.399759 26.558068 11.597066 26.558068 10.599869 L 26.558068 9.1999547 L 30.4307 9.1999547 C 32.646693 9.1999547 34.430456 7.4156755 34.430456 5.1996821 L 34.430456 3.9997553 C 34.430456 1.7837619 32.646693 -5.4817709e-07 30.4307 -5.4817708e-07 L 26.558068 -5.4817708e-07 L 26.558068 -1.3999151 C 26.558068 -2.397112 25.755375 -3.200322 24.758178 -3.200322 L 7.1272131 -3.200322 z M 1.5999019 2.9998163 A 1.6 1.6 0 0 1 3.1998042 4.5997187 A 1.6 1.6 0 0 1 1.5999019 6.2001378 A 1.6 1.6 0 0 1 -4.8645833e-07 4.5997187 A 1.6 1.6 0 0 1 1.5999019 2.9998163 z M 30.285489 2.9998163 A 1.6 1.6 0 0 1 31.885392 4.5997187 A 1.6 1.6 0 0 1 30.285489 6.2001378 A 1.6 1.6 0 0 1 28.68507 4.5997187 A 1.6 1.6 0 0 1 30.285489 2.9998163 z " /><rect
       style="display:inline;opacity:1;fill:#000000;stroke:none;stroke-width:0"
       id="rect2"
       width="13.616186"
       height="14.069425"
       x="9.122345"
       y="-2.4349935" /><path
       id="rect11"
       style="fill:url(#radialGradient14);fill-opacity:1;stroke:none;stroke-width:0"
       d="M 8.2196526,-2.8101649 V 12.009602 H 23.641451 V -2.8101649 Z M 9.1224398,-2.434994 H 22.738663 v 8.9405395 l -2.249475,1.0914063 0.05064,4.0374792 H 11.321272 L 11.371399,7.5969518 9.1224398,6.5055455 Z" /><rect
       style="display:inline;fill:#2c2cff;fill-opacity:1;stroke:#000000;stroke-width:0"
       id="rect4"
       width="5.7564764"
       height="3.4139302"
       x="13.065819"
       y="1.2929294"
       rx="0.2"
       ry="0.2" /><rect
       style="display:inline;fill:#2c2cff;fill-opacity:1;stroke:none;stroke-width:0"
       id="rect5"
       width="5.3981867"
       height="1.4841236"
       x="13.244964"
       y="7.5968013"
       rx="0.2"
       ry="0.2" /><rect
       style="display:inline;fill:url(#radialGradient16);fill-opacity:1;stroke:#000000;stroke-width:0"
       id="rect9"
       width="5.5018826"
       height="3.1062295"
       x="13.193115"
       y="1.4467797"
       rx="0.19115452"
       ry="0.18197383" /><rect
       style="display:inline;fill:url(#radialGradient21);fill-opacity:1;stroke:#000000;stroke-width:0"
       id="rect10"
       width="5.181838"
       height="1.3289706"
       x="13.353138"
       y="7.6743774"
       rx="0.1919844"
       ry="0.17909162" /></g></svg>
